Numix-GalliumOS/22/emblems/emblem-insync-error.svg

<?xml version="1.0" encoding="UTF-8" standalone="no"?>
<svg
   xmlns:dc="http://purl.org/dc/elements/1.1/"
   xmlns:cc="http://creativecommons.org/ns#"
   xmlns:rdf="http://www.w3.org/1999/02/22-rdf-syntax-ns#"
   xmlns:svg="http://www.w3.org/2000/svg"
   xmlns="http://www.w3.org/2000/svg"
   xmlns:sodipodi="http://sodipodi.sourceforge.net/DTD/sodipodi-0.dtd"
   xmlns:inkscape="http://www.inkscape.org/namespaces/inkscape"
   width="22"
   height="22"
   viewBox="0 0 22 22"
   id="svg2"
   version="1.1"
   inkscape:version="0.91 r"
   sodipodi:docname="emblem-insync-error.svg">
  <metadata
     id="metadata12">
    <rdf:RDF>
      <cc:Work
         rdf:about="">
        <dc:format>image/svg+xml</dc:format>
        <dc:type
           rdf:resource="http://purl.org/dc/dcmitype/StillImage" />
        <dc:title></dc:title>
      </cc:Work>
    </rdf:RDF>
  </metadata>
  <defs
     id="defs10" />
  <sodipodi:namedview
     pagecolor="#ffffff"
     bordercolor="#666666"
     borderopacity="1"
     objecttolerance="10"
     gridtolerance="10"
     guidetolerance="10"
     inkscape:pageopacity="0"
     inkscape:pageshadow="2"
     inkscape:window-width="801"
     inkscape:window-height="480"
     id="namedview8"
     showgrid="false"
     inkscape:zoom="10.727273"
     inkscape:cx="11"
     inkscape:cy="11"
     inkscape:window-x="0"
     inkscape:window-y="30"
     inkscape:window-maximized="0"
     inkscape:current-layer="svg2" />
  <path
     style="fill:#dc322f;stroke:#777;stroke-width:0.792;fill-opacity:1"
     d="M 43.602273 24 C 43.602273 34.823864 34.823864 43.602273 24 43.602273 C 13.176136 43.602273 4.397727 34.823864 4.397727 24 C 4.397727 13.176136 13.176136 4.397727 24 4.397727 C 34.823864 4.397727 43.602273 13.176136 43.602273 24 Z "
     transform="scale(.45833)"
     id="path4" />
  <path
     style="fill:#ffffff;fill-opacity:1"
     d="M 13.960938 5.5 L 11 8.460938 L 8.039062 5.5 L 5.5 8.039062 L 8.460938 11 L 5.5 13.960938 L 8.039062 16.5 L 11 13.539062 L 13.960938 16.5 L 16.5 13.960938 L 13.539062 11 L 16.5 8.039062 Z "
     id="path6" />
</svg>

<svg xmlns="http://www.w3.org/2000/svg" viewBox="0 0 22 22">
 <path d="m 43.602 24 c 0 10.824 -8.778 19.602 -19.602 19.602 c -10.824 0 -19.602 -8.778 -19.602 -19.602 c 0 -10.824 8.778 -19.602 19.602 -19.602 c 10.824 0 19.602 8.778 19.602 19.602 Z" transform="scale(.45833)" style="fill:#dc322f;fill-opacity:1;stroke:#777;stroke-width:0.792"/>
 <path d="m 13.961 5.5 l -2.961 2.961 l -2.961 -2.961 l -2.539 2.539 l 2.961 2.961 l -2.961 2.961 l 2.539 2.539 l 2.961 -2.961 l 2.961 2.961 l 2.539 -2.539 l -2.961 -2.961 l 2.961 -2.961 Z" style="fill:#fff;fill-opacity:1"/>
</svg>
